public/icons/lock_alt.svg

<svg width="14" height="14" viewBox="0 0 14 14" fill="none" xmlns="http://www.w3.org/2000/svg">
<path d="M7.00001 7.58329C6.8453 7.58329 6.69693 7.64475 6.58753 7.75415C6.47814 7.86354 6.41668 8.01192 6.41668 8.16663V9.91663C6.41668 10.0713 6.47814 10.2197 6.58753 10.3291C6.69693 10.4385 6.8453 10.5 7.00001 10.5C7.15472 10.5 7.30309 10.4385 7.41249 10.3291C7.52189 10.2197 7.58334 10.0713 7.58334 9.91663V8.16663C7.58334 8.01192 7.52189 7.86354 7.41249 7.75415C7.30309 7.64475 7.15472 7.58329 7.00001 7.58329ZM9.91668 5.24996V4.08329C9.91668 3.30974 9.60939 2.56788 9.06241 2.0209C8.51542 1.47392 7.77356 1.16663 7.00001 1.16663C6.22646 1.16663 5.4846 1.47392 4.93762 2.0209C4.39063 2.56788 4.08334 3.30974 4.08334 4.08329V5.24996C3.61921 5.24996 3.1741 5.43433 2.84591 5.76252C2.51772 6.09071 2.33334 6.53583 2.33334 6.99996V11.0833C2.33334 11.5474 2.51772 11.9925 2.84591 12.3207C3.1741 12.6489 3.61921 12.8333 4.08334 12.8333H9.91668C10.3808 12.8333 10.8259 12.6489 11.1541 12.3207C11.4823 11.9925 11.6667 11.5474 11.6667 11.0833V6.99996C11.6667 6.53583 11.4823 6.09071 11.1541 5.76252C10.8259 5.43433 10.3808 5.24996 9.91668 5.24996ZM5.25001 4.08329C5.25001 3.61916 5.43438 3.17404 5.76257 2.84586C6.09076 2.51767 6.53588 2.33329 7.00001 2.33329C7.46414 2.33329 7.90926 2.51767 8.23745 2.84586C8.56564 3.17404 8.75001 3.61916 8.75001 4.08329V5.24996H5.25001V4.08329ZM10.5 11.0833C10.5 11.238 10.4386 11.3864 10.3292 11.4958C10.2198 11.6052 10.0714 11.6666 9.91668 11.6666H4.08334C3.92863 11.6666 3.78026 11.6052 3.67086 11.4958C3.56147 11.3864 3.50001 11.238 3.50001 11.0833V6.99996C3.50001 6.84525 3.56147 6.69688 3.67086 6.58748C3.78026 6.47808 3.92863 6.41663 4.08334 6.41663H9.91668C10.0714 6.41663 10.2198 6.47808 10.3292 6.58748C10.4386 6.69688 10.5 6.84525 10.5 6.99996V11.0833Z" fill="#AFB1B6"/>
</svg>

<svg xmlns="http://www.w3.org/2000/svg" width="14" height="14" fill="none"><path fill="#AFB1B6" d="M7 7.583a.583.583 0 0 0-.583.584v1.75a.583.583 0 0 0 1.166 0v-1.75A.583.583 0 0 0 7 7.583ZM9.917 5.25V4.083a2.917 2.917 0 1 0-5.834 0V5.25A1.75 1.75 0 0 0 2.333 7v4.083a1.75 1.75 0 0 0 1.75 1.75h5.834a1.75 1.75 0 0 0 1.75-1.75V7a1.75 1.75 0 0 0-1.75-1.75ZM5.25 4.083a1.75 1.75 0 1 1 3.5 0V5.25h-3.5V4.083Zm5.25 7a.583.583 0 0 1-.583.584H4.083a.583.583 0 0 1-.583-.584V7a.583.583 0 0 1 .583-.583h5.834A.583.583 0 0 1 10.5 7v4.083Z"/></svg>
